packages/ckeditor5-icons/theme/icons/ai-chat-commands.svg

<svg viewBox="0 0 20 20" xmlns="http://www.w3.org/2000/svg">
<path d="M15.7388 13.0085C15.7393 12.593 16.1792 12.3651 16.4878 12.5866L16.5484 12.6364L19.8453 15.8688L19.8814 15.9079C20.038 16.0982 20.038 16.3836 19.8814 16.5739L19.8453 16.613L16.5484 19.8454C16.2597 20.1278 15.8011 19.9428 15.7447 19.5534L15.7388 19.4723V18.0046C15.3963 18.0444 14.8406 18.1466 14.1685 18.4089L13.98 18.486C13.3256 18.7625 12.8305 19.2517 12.5162 19.6423L12.3931 19.8024C12.2289 20.0248 11.9751 20.0277 11.8189 19.9645C11.6609 19.9004 11.4601 19.7067 11.5054 19.4059L11.5689 19.0173C11.6435 18.5911 11.7528 18.062 11.9039 17.5426C12.1003 16.8674 12.3875 16.1354 12.8101 15.6891L12.9234 15.5749C13.9089 14.6184 15.1177 14.4811 15.7388 14.4811V13.0085Z"/>
<path d="M0.772995 12.5358C1.16752 12.4108 1.58889 12.6288 1.7144 13.0231C1.7144 13.0231 1.71701 13.03 1.71831 13.0339C1.72183 13.0444 1.72779 13.0627 1.73589 13.0856C1.75246 13.1324 1.77893 13.2046 1.81499 13.2956C1.88776 13.4791 2.00034 13.7426 2.15678 14.0495C2.47249 14.6685 2.95512 15.4464 3.62944 16.1208C4.33036 16.8216 5.00971 17.3127 5.50932 17.6266C5.75869 17.7833 5.9631 17.8952 6.10112 17.9665C6.16983 18.0019 6.22209 18.0279 6.25542 18.0436C6.272 18.0514 6.28474 18.0562 6.29155 18.0592L6.29741 18.0622C6.67739 18.2262 6.85168 18.6673 6.68803 19.0475C6.53418 19.4034 6.13709 19.5805 5.77495 19.4665L5.70268 19.4391L5.69389 19.4352C5.68937 19.4332 5.68248 19.4306 5.67534 19.4274C5.66095 19.4209 5.64107 19.4115 5.61675 19.4001C5.56759 19.3769 5.49839 19.3437 5.41264 19.2995C5.24072 19.2107 4.99987 19.0773 4.71147 18.8962C4.13516 18.5341 3.36322 17.9756 2.56889 17.1813C1.7482 16.3606 1.18128 15.437 0.820847 14.7301C0.639872 14.3752 0.50776 14.0685 0.420456 13.8483C0.376962 13.7386 0.34416 13.6487 0.321824 13.5856C0.310786 13.5544 0.301539 13.5285 0.295456 13.5104C0.292632 13.502 0.290355 13.4943 0.28862 13.4889C0.287949 13.4869 0.285691 13.4821 0.285691 13.4821V13.4792L0.284714 13.4782C0.159638 13.0836 0.37847 12.6612 0.772995 12.5358Z"/>
<path d="M11.2906 6.83952C11.671 7.8673 12.4816 8.67785 13.5093 9.05827L16.9996 10.3493L13.5093 11.6403C12.4816 12.0207 11.671 12.8324 11.2906 13.86L9.99956 17.3493L8.70854 13.86C8.32814 12.8322 7.51661 12.0207 6.48882 11.6403L2.99956 10.3493L6.48882 9.05827C7.51648 8.67781 8.32818 7.86723 8.70854 6.83952L9.99956 3.34928L11.2906 6.83952Z"/>
<path d="M13.314 0.952797C13.4678 0.596947 13.865 0.419953 14.2271 0.533852L14.2994 0.561195L14.3082 0.565102C14.3127 0.567072 14.3197 0.569781 14.3267 0.572914C14.3411 0.579376 14.3611 0.588881 14.3853 0.600258C14.4344 0.623385 14.5038 0.656658 14.5894 0.700844C14.7613 0.789595 15.0023 0.923044 15.2906 1.10416C15.8669 1.46628 16.6389 2.02477 17.4332 2.81901C18.2539 3.63973 18.8208 4.56333 19.1812 5.27018C19.3622 5.62519 19.4943 5.93185 19.5816 6.15202C19.6251 6.26179 19.6579 6.35158 19.6802 6.41471C19.6913 6.44597 19.7005 6.47178 19.7066 6.48991C19.7094 6.49838 19.7117 6.50601 19.7134 6.51139C19.7141 6.51355 19.7164 6.51823 19.7164 6.51823V6.52116L19.7173 6.52213C19.8424 6.9167 19.6235 7.33906 19.229 7.46452C18.8346 7.58943 18.4131 7.37148 18.2876 6.97721C18.2876 6.97721 18.2851 6.97047 18.2837 6.96647C18.2802 6.95593 18.2743 6.93766 18.2662 6.91471C18.2496 6.86788 18.2231 6.79577 18.1871 6.70475C18.1143 6.52125 18.0017 6.25772 17.8453 5.95084C17.5296 5.33176 17.047 4.55391 16.3726 3.87955C15.6717 3.17872 14.9923 2.68761 14.4927 2.3737C14.2435 2.21711 14.0389 2.1051 13.9009 2.03385C13.8324 1.99847 13.7799 1.97239 13.7466 1.9567C13.7302 1.94901 13.7173 1.94414 13.7105 1.94108L13.7046 1.93815C13.3247 1.77411 13.1504 1.33299 13.314 0.952797Z"/>
<path d="M2.04936 3.75065C2.46325 3.75091 2.79919 4.08675 2.79936 4.50065C2.79936 4.9147 2.46336 5.25039 2.04936 5.25065C1.63515 5.25065 1.29936 4.91486 1.29936 4.50065C1.29954 4.08659 1.63526 3.75065 2.04936 3.75065Z"/>
<path d="M4.54839 1.25065C4.96253 1.25065 5.29827 1.58653 5.29839 2.00065C5.29839 2.41486 4.9626 2.75065 4.54839 2.75065C4.13418 2.75064 3.79839 2.41486 3.79839 2.00065C3.7985 1.58653 4.13425 1.25065 4.54839 1.25065Z"/>
</svg>

<svg xmlns="http://www.w3.org/2000/svg" viewBox="0 0 20 20"><path d="M15.739 13.009c0-.416.44-.644.749-.422l.06.05 3.297 3.232.036.039a.53.53 0 0 1 0 .666l-.036.039-3.297 3.232c-.288.283-.747.098-.803-.292l-.006-.08v-1.468c-.343.04-.898.142-1.57.404l-.189.077c-.654.276-1.15.766-1.464 1.156l-.123.16a.48.48 0 0 1-.574.163.516.516 0 0 1-.314-.56l.064-.388c.074-.426.184-.955.335-1.474.196-.676.483-1.408.906-1.854l.113-.114c.986-.957 2.195-1.094 2.816-1.094zM.773 12.536a.75.75 0 0 1 .945.498l.018.052a9 9 0 0 0 .42.964c.316.619.8 1.396 1.473 2.07.701.702 1.38 1.193 1.88 1.507a8 8 0 0 0 .746.417l.037.015.005.003a.75.75 0 0 1-.522 1.404l-.072-.027-.01-.004-.018-.008-.058-.027a10 10 0 0 1-.905-.504 12.3 12.3 0 0 1-2.143-1.715c-.82-.82-1.388-1.744-1.748-2.45a10 10 0 0 1-.5-1.145l-.026-.076-.006-.021-.003-.007v-.003H.285a.75.75 0 0 1 .488-.943M11.29 6.84a3.76 3.76 0 0 0 2.22 2.218L17 10.35l-3.49 1.291a3.76 3.76 0 0 0-2.22 2.22L10 17.35l-1.291-3.49a3.76 3.76 0 0 0-2.22-2.22l-3.49-1.29 3.49-1.292a3.76 3.76 0 0 0 2.22-2.218l1.29-3.49zM13.314.953a.75.75 0 0 1 .913-.42l.072.028.01.004.018.008.058.027q.076.035.204.1c.172.09.413.223.702.404.576.362 1.348.92 2.142 1.715.82.82 1.388 1.744 1.748 2.451a10 10 0 0 1 .5 1.145l.026.075.006.021.003.007v.003l.001.001a.75.75 0 0 1-1.43.455l-.003-.01-.018-.052-.079-.21a9 9 0 0 0-.342-.754c-.315-.62-.798-1.397-1.472-2.071a10.8 10.8 0 0 0-1.88-1.506 8 8 0 0 0-.746-.417l-.037-.016-.005-.003a.75.75 0 0 1-.391-.985M2.05 3.75a.75.75 0 1 1-.002 1.502.75.75 0 0 1 .001-1.501M4.548 1.25a.75.75 0 1 1 0 1.501.75.75 0 0 1 0-1.5"/></svg>
